!!!!SEGMENT: pl-kk--kk-i-8--025_anonim-virginis-proles-opifex.krn
!!!id: 16xx:1166
!!!COM: Anonim
!!!OTL: Virginis proles opifex
!!!PDT:
!!!SMS-siglum: PL-Kk
!!!SMS-shelfmark: Kk.I.8
!!!NIFC-rismID: 1001149056
!!!URL-scan: http://repozytorium.nifc.pl/skany/pl-kk-nut--i-8
!!!ONB-nifc: UWAGA: A (skan 0013), T1 (0036), T2 (0060), B (0083). Następny utwór: Fortem virili pectore
!!!SMS-variant:
!!!SMS-altvar:
**kern	**text	**text	**text	**kern	**text	**text	**text	**kern	**text	**text	**text	**kern	**text	**text	**text
*part4	*part4	*part4	*part4	*part3	*part3	*part3	*part3	*part2	*part2	*part2	*part2	*part1	*part1	*part1	*part1
*staff4	*staff4	*staff4	*staff4	*staff3	*staff3	*staff3	*staff3	*staff2	*staff2	*staff2	*staff2	*staff1	*staff1	*staff1	*staff1
*I"BASSVS.	*	*	*	*I"TENOR 2dus.	*	*	*	*I"Tenore 1mo	*	*	*	*I"alto.	*	*	*
*I'B.	*	*	*	*I'T. 2	*	*	*	*I'T. 1	*	*	*	*I'A.	*	*	*
*clefF4	*	*	*	*clefC4	*	*	*	*clefC4	*	*	*	*clefC3	*	*	*
*k[]	*	*	*	*k[]	*	*	*	*k[]	*	*	*	*k[]	*	*	*
*M3/1	*	*	*	*M3/1	*	*	*	*M3/1	*	*	*	*M3/1	*	*	*
=1	=1	=1	=1	=1	=1	=1	=1	=1	=1	=1	=1	=1	=1	=1	=1
!LO:TX:a:i:t=De Virginibus Martyribus	!	!	!	!LO:TX:a:i:t=De Virginibus Mart&colon;&colon;	!	!	!	!LO:TX:a:i:t=De Virginibus Mart&colon;	!	!	!	!LO:TX:t=P:problem:V wielkie, na pocz. pięciolinii, przed kluczem	!	!	!
1.D\	1 Vir-	2 Haec	5 Sit	1.d\	1 Vir-	2 Haec	5 Sit	1.A\	1 Vir-	2 Haec	5 Sit	1.f\	1 Vir-	2 Haec	5 Sit
*	*	*	*	*2\right	*	*	*	*2\right	*	*	*	*	*	*	*
2D/	-gi-	e-	de-	2d\	-gi-	e-	de-	2A\	-gi-	e-	de-	2f\	-gi-	e-	de-
1BB/	-nis	-nim	-cus	1d\	-nis	-nim	-cus	1d\	-nis	-nim	-cus	1g\	-nis	-nim	-c(us)
=2	=2	=2	=2	=2	=2	=2	=2	=2	=2	=2	=2	=2	=2	=2	=2
1.AA/	pro-	pal-	Pa-	0c#X\	pro-	pal-	Pa-	0e\	pro-	pal-	Pa-	0a\	pro-	pal-	Pa-
2BB/	.	.	.	.	.	.	.	.	.	.	.	.	.	.	.
1C#X/	-les	-mae	-tri	1c#\	-les	-mae	-tri	1A\	-les	-mae	-tri	1e\	-leſ	-mae	-tri
=3	=3	=3	=3	=3	=3	=3	=3	=3	=3	=3	=3	=3	=3	=3	=3
1.D\	o-	du-	ge-	1.A\	o-	du-	ge-	1.f\	o-	du-	ge-	(2d\	o-	du-	ge-
.	.	.	.	.	.	.	.	.	.	.	.	2e\)	.	.	.
.	.	.	.	.	.	.	.	.	.	.	.	(2f\	-pi-	-pli-	-ni-
*2\right	*	*	*	*	*	*	*	*	*	*	*	*	*	*	*
2E\	-pi-	-pli-	-ni-	2A/	-pi-	-pli-	-ni-	2e\	-pi-	-pli-	-ni-	2g\)	.	.	.
(2F\	-fex-	-cis	-tae-	1A\	-fex-	-cis	-tae-	1d\	-fex-	-cis	-tae-	1a\	-fex-	-cis	-tae-
2G\)	.	.	.	.	.	.	.	.	.	.	.	.	.	.	.
=4	=4	=4	=4	=4	=4	=4	=4	=4	=4	=4	=4	=4	=4	=4	=4
*	*	*	*	*	*	*	*	*	*	*	*	*lig	*	*	*
1A\	-q(ue)	be-	-q(ue)	1A\	-q(ue)	be-	-q(ue)	1c#X\	-q(ue)	be-	-q(ue)	1e\	-q(ue)	be-	-q(ue)
*	*	*	*	*lig	*	*	*	*	*	*	*	*	*	*	*
0B-X\	Ma-	-a-	pro-	1A\	Ma-	-a-	pro-	0d\	Ma-	-a-	pro-	1f\	.	.	.
*	*	*	*	*	*	*	*	*	*	*	*	*Xlig	*	*	*
.	.	.	.	1G/	.	.	.	.	.	.	.	1g\	Ma-	-a-	pro-
*	*	*	*	*Xlig	*	*	*	*	*	*	*	*	*	*	*
=5	=5	=5	=5	=5	=5	=5	=5	=5	=5	=5	=5	=5	=5	=5	=5
0.A\	-tris	-ta	-li	0.A\	-tris	-ta	-li	0.c#X\	-tris	-ta	-li	0.e\	-tris	-ta	-li
=6	=6	=6	=6	=6	=6	=6	=6	=6	=6	=6	=6	=6	=6	=6	=6
!	!	!	!	!	!	!	!	!LO:N:acc=-	!	!	!	!	!	!	!
1F\	Vir-	ſor-	et	1A\	Vir-	for-	et	1cn\	Vir-	for-	et	1f\	Vir-	ſor-	et
1.E\	-go	-te	ti-	1.G/	-go	-te	ti-	1.c\	-go	-te	ti-	1.g\	-go	-te	ti-
2E\	quem	dum	-bi	2G/	quem	dum	-bi	2B\	que(m)	dum	-bi	2g\	q(uem)	du(m)	-bi
=7	=7	=7	=7	=7	=7	=7	=7	=7	=7	=7	=7	=7	=7	=7	=7
0F\	geſ-	geſ-	com-	0c\	geſ-	geſ-	com-	0A\	geſ-	geſ-	com-	0f\	geſ-	geſ-	Com-
1F\	-sit	-tit	-par	1c\	-tit	-tit	-par	1A\	-sit	-tit	-par	1f\	-sit	-tit	-par
=8	=8	=8	=8	=8	=8	=8	=8	=8	=8	=8	=8	=8	=8	=8	=8
1.BB-X/	pe-	fra-	U-	1.B-X\	pe-	fra-	U-	1.d\	pe-	fra-	U-	1.f\	pe-	fra-	U-
2C/	-pe-	-gi-	-tri-	2B-\	-pe-	-gi-	-tri-	2c\	-pe-	-gi-	-tri-	2e\	-pe-	-gi-	-tri-
2D/	-rit-	-lem	-us-	1F/	-rit-	-lem	-us-	1B-X\	-rit-	-lem	-us-	2f\	-rit-	-le(m)	-us-
2E/	.	.	.	.	.	.	.	.	.	.	.	2g\	.	.	.
=9	=9	=9	=9	=9	=9	=9	=9	=9	=9	=9	=9	=9	=9	=9	=9
1F\	-q(ue)	do-	-q(ue)	1F/	-q(ue)	do-	-q(ue)	1A\	-q(ue)	do-	-q(ue)	2a\	-q(ue)	do-	-q(ue)
.	.	.	.	.	.	.	.	.	.	.	.	2f\	.	.	.
(>1BB/	Vir-	-ma-	Vir-	1B-X\	Vir-	-ma-	Vir-	0G/	Vir-	-ma-	Vir-	1f\	Vir-	-ma-	vir-
1C/)	.	.	.	2G/	.	.	.	.	.	.	.	1e\	.	.	.
.	.	.	.	2c\	.	.	.	.	.	.	.	.	.	.	.
=10	=10	=10	=10	=10	=10	=10	=10	=10	=10	=10	=10	=10	=10	=10	=10
0.FF/	-go	-re	-tus	0.c\	-go	-re	-tus	0.A\	-go	-re	-tus	0.f\	-go	-re	-tus
=11	=11	=11	=11	=11	=11	=11	=11	=11	=11	=11	=11	=11	=11	=11	=11
1.F\	Vir-	Cor-	ſpi-	1.A\	Vir-	Cor-	ſpi-	1.c\	Vir-	Cor-	ſpi-	1.f\	Vir-	Cor-	ſpi-
2E\	-gi-	-po-	-ri-	2G/	-gi-	-po-	-ri-	2c\	-gi-	-po-	-ri-	2g\	-gi-	-po-	-ri-
1D\	-nis	-ris	-tus	(2A/	-nis	-ris	-tus	1d\	-nis	-ris	-tus	1f\	-nis	-ris	-t(us)
.	.	.	.	2B/)	.	.	.	.	.	.	.	.	.	.	.
=12	=12	=12	=12	=12	=12	=12	=12	=12	=12	=12	=12	=12	=12	=12	=12
0C/	par-	ſe-	ſem-	0c\	par-	Se-	ſem-	0e\	par-	Se-	ſem-	0e\	par-	ſe-	se(m)-
1C/	-tos	-xu(m)	-per	1c\	-tos	-xum	-per	1e\	-tos	-xum	-per	1e\	-tos	-xu(m)	-per
=13	=13	=13	=13	=13	=13	=13	=13	=13	=13	=13	=13	=13	=13	=13	=13
1.G\	Ca-	do-	De-	1.B#X\	Ca-	do-	De-	1.d\	Ca-	do-	De-	1.g\	Ca-	do-	De-
2E\	-ni-	-mu-	-us	2c\	-ni-	-mu-	-us	2e\	-ni-	-mu-	-us	2g\	-ni-	-mu-	-us
1F\	-mus	-it	u-	1A\	-muſ	-it	U-	1c\	-mus	-it	U-	1f\	-mus	-it	u-
=14	=14	=14	=14	=14	=14	=14	=14	=14	=14	=14	=14	=14	=14	=14	=14
1D\	de-	Cru-	-nus	1A\	de-	Cru-	-nus	(2d\	de-	Cru-	-nus	1f\	de-	Cru-	-n(us)
.	.	.	.	.	.	.	.	2c\)	.	.	.	.	.	.	.
*	*	*	*	*lig	*	*	*	*	*	*	*	*	*	*	*
0E\	-co-	-en-	om-	1A\	-co-	-en-	om-	2B\	.	-en-	o-	0e\	-co-	-en-	om-
.	.	.	.	.	.	.	.	2A\	-co-	.	.	.	.	.	.
!	!	!	!	!LO:TX:t=P:problem:♯below	!	!	!	!	!	!	!	!	!	!	!
.	.	.	.	1G#X/	.	.	.	1B\	.	.	.	.	.	.	.
*	*	*	*	*Xlig	*	*	*	*	*	*	*	*	*	*	*
=15	=15	=15	=15	=15	=15	=15	=15	=15	=15	=15	=15	=15	=15	=15	=15
1AA/	-ra	-tum	-ni	0.A\	-ra	-tim	-ni	1A\	-ra	-tum	-mni	1e\	-ra	-tu(m)	-ni,
1A\	mor-	cae-	tem-	.	.	.	.	2c\	mor-	cae-	tem-	2e\	mor-	cae-	tem-
.	.	.	.	.	.	.	.	2B\	.	.	.	2d\	.	.	.
2G\	.	.	.	.	.	.	.	2c\	.	.	.	2e\	.	.	.
2F\	.	.	.	.	.	.	.	2d\	.	.	.	2f\	.	.	.
=16	=16	=16	=16	=16	=16	=16	=16	=16	=16	=16	=16	=16	=16	=16	=16
[1.E\	.	.	-po-	1.G/	Mor-	cae-	.	[1.e\	.	.	.	1.g\	.	-de	-po-
2E\]	.	.	.	2G/	-te	-de	tem-	2e\]	.	.	.	2g\	-te	Ty-	.
1F\	-te	-de	-ris	1A\	Tri-	Ty-	-po-	2d\	.	.	.	2f\	.	.	-ris
.	.	.	.	.	.	.	.	2c\	.	.	.	2e\	.	.	.
=17	=17	=17	=17	=17	=17	=17	=17	=17	=17	=17	=17	=17	=17	=17	=17
*	*	*	*	*	*	*	*	*	*	*	*	*	*	*	*ij
[1.G\	mor-	cae-	tem-	[<1.B-X\	-um-	-ran-	-ris	1.B\	.	.	.	1.d\	tri-	-ran-	om-
2G\]	.	.	.	2B-\]	.	.	.	2B\	-te	-de	-po-	2d\	-um-	-num	-ni
2F\	.	.	.	2A/	.	.	.	1c#X\	tri-	Tyr-	-ris	1e\	-phos	.	.
2E\	.	.	.	2G/	.	.	.	.	.	.	.	.	.	.	.
=18	=18	=18	=18	=18	=18	=18	=18	=18	=18	=18	=18	=18	=18	=18	=18
*	*	*	*	*	*	*	*ij	*	*	*	*	*	*ij	*ij	*
1.D\	.	.	.	1.F/	-phos	-num	tem-	1.d\	-um-	-ran-	tem-	1.f\	mor-	cae-	tem-
2E\	.	.	.	2G/	.	.	-po-	2d\	-phos	-num	-po-	2g\	.	.	-po-
1F\	-te	-de	-po-	1A\	.	.	-ris	1d\	tri-	Ty-	-ris	1a\	-te	-de	-ris
=19	=19	=19	=19	=19	=19	=19	=19	=19	=19	=19	=19	=19	=19	=19	=19
*	*	*	*	*	*ij	*ij	*Xij	*	*	*	*	*	*	*	*Xij
1G\	Tri-	Ty-	-ris	1B-X\	Tri-	Ty-	ae-	0d\	-um-	-ran-	ae-	1e\	tri-	Ty-	ae-
0A\	-jum-	-ran-	ae-	0A\	-um-	-ran-	.	.	.	.	.	0e\	-um-	-ran-	.
.	.	.	.	.	.	.	.	1c#X\	.	.	.	.	.	.	.
=20	=20	=20	=20	=20	=20	=20	=20	=20	=20	=20	=20	=20-	=20	=20	=20
0.D\;	-phos	-num	-uo	0.A\;<	-phos	-num	-uo	0.d\;<	-phos	-num.	-uo	0.f#X\;;	-phos	-num	-vo
*	*	*	*	*	*Xij	*Xij	*	*	*	*	*	*	*Xij	*Xij	*
=21||	=21||	=21||	=21||	=21||	=21||	=21||	=21||	=21||	=21||	=21||	=21||	=21||	=21||	=21||	=21||
*M3/1	*	*	*	*M3/1	*	*	*	*M3/1	*	*	*	*M3/1	*	*	*
!LO:LB:g=original	!	!	!	!LO:LB:g=original	!	!	!	!LO:LB:g=original	!	!	!	!LO:LB:g=original	!	!	!
1D\	3 Un-	4 Hu-	.	1A\	3 Un-	4 Hu-	.	1d\	3 Vn-	4 Hu-	.	1f\	3 Vn-	4. Hu-	.
1D\	-de	-ius	.	1B-X\	-de	-ius	.	1d\	-de	-ius	.	1g\	-de	-i(us)	.
1C/	nec	o-	.	1A\	nec	o-	.	1e\	nec	o-	.	1a\	nec	o-	.
=22	=22	=22	=22	=22	=22	=22	=22	=22	=22	=22	=22	=22	=22	=22	=22
0.BB-X/	mor-	-ra-	.	0A\	mor-	-ra-	.	2f\	mor-	-ra-	.	1.d\	mor-	-ra-	.
.	.	.	.	.	.	.	.	2e\	.	.	.	.	.	.	.
.	.	.	.	.	.	.	.	0d\	.	.	.	.	.	.	.
.	.	.	.	.	.	.	.	.	.	.	.	4e\	.	-tu	.
.	.	.	.	.	.	.	.	.	.	.	.	4f\	.	.	.
.	.	.	.	1G/	-tem	-tu	.	.	.	.	.	2e\	.	De-	.
.	.	.	.	.	.	.	.	.	.	.	.	2d\	.	.	.
=23	=23	=23	=23	=23	=23	=23	=23	=23	=23	=23	=23	=23	=23	=23	=23
0.AA/	-tem	-tu	.	0.A\	nec	De-	.	0.c#X\	-tem	-tu	.	0.e\	-te(m)	-(us)	.
=24	=24	=24	=24	=24	=24	=24	=24	=24	=24	=24	=24	=24	=24	=24	=24
1.F\	nec	De-	.	1.c\	a-	-us	.	1.f\	nec	De-	.	1.a\	nec	al-	.
2FF/	a-	-us	.	2c\	-mi-	al-	.	2e\	a-	-us	.	2g\	a-	.	.
1BB-X/	-mi-	al-	.	1d\	.	.	.	(<2d\	-mi-	al-	.	2f\	-mi-	-me	.
.	.	.	.	.	.	.	.	2e\	.	.	.	2g\	-ca	.	.
=25	=25	=25	=25	=25	=25	=25	=25	=25	=25	=25	=25	=25	=25	=25	=25
1AA/	-ca	-me	.	1c\	-ca	-me	.	2f\)	.	.	.	1a\	mor-	no-	.
.	.	.	.	.	.	.	.	2f\	-ca	-me	.	.	.	.	.
0C/	mor-	no-	.	0c\	mor-	no-	.	1f\	mor-	no-	.	0g\	.	.	.
.	.	.	.	.	.	.	.	1e\	.	.	.	.	.	.	.
=26	=26	=26	=26	=26	=26	=26	=26	=26	=26	=26	=26	=26	=26	=26	=26
0.FF/	-tiſ	-bis	.	0.A\	-tis	-bis	.	0.c\,<	-tis	-bis	.	0.f\	-tis	-bis	.
=27	=27	=27	=27	=27	=27	=27	=27	=27	=27	=27	=27	=27	=27	=27	=27
1F\	mil-	de-	.	(2A\	mil-	de-	.	(2c\	mil-	de-	.	1a\	mil-	de-	.
.	.	.	.	2B\)	.	.	.	2d\)	.	.	.	.	.	.	.
1F\	-le	-bi-	.	(2c\	-le	-bi-	.	(2e\	-le	-bi-	.	1a\	-le	-bi-	.
.	.	.	.	2A\)	.	.	.	2c\)	.	.	.	.	.	.	.
1E\	p(oe)-	-tas	.	(2B\	pae-	-tas	.	(2d\	pae-	-tas	.	1g\	.	-tas	.
.	.	.	.	2c\)	.	.	.	2e\)	.	.	.	.	.	.	.
=28	=28	=28	=28	=28	=28	=28	=28	=28	=28	=28	=28	=28	=28	=28	=28
0D\	-na-	pae-	.	0d\	-na-	pae-	.	0f\	-na-	pae-	.	1f\	p(oe)-	p(oe)-	.
.	.	.	.	.	.	.	.	.	.	.	.	1g\	-na-	.	.
1C#X/	-ru(m)	-nas	.	1A\	-rum	-nas	.	1e\	-rum	-nas	.	1a\	-ru(m)	-nas	.
=29	=29	=29	=29	=29	=29	=29	=29	=29	=29	=29	=29	=29	=29	=29	=29
1D\	ge-	ſce-	.	[<1A\	ge-	ſce-	.	1d\	ge-	ſce-	.	1f\	ge-	ſce-	.
2D/	-ne-	-le-	.	2A/]	-ne-	.	.	2d\	-ne-	-le-	.	2f\	-ne-	-le-	.
!LO:TX:t=P:problem:♯below	!	!	!	!	!	!	!	!	!	!	!	!	!	!	!
2C#/	-ra	.	.	2A/	-ra	-le-	.	2A\	.	.	.	2e\	-ra	.	.
1BB/	ex-	-rum	.	1G#X/	ex	-rum	.	1B\	-ra	-rum	.	1d\	ex-	-r(um)	.
=30	=30	=30	=30	=30	=30	=30	=30	=30	=30	=30	=30	=30	=30	=30	=30
1AA/	-pa-	re-	.	1c\	pa-	re-	.	1A\	ex-	re-	.	1e\	-pa-	re-	.
0E\	-ue-	-mit-	.	0B\	-ue-	-mit-	.	1.A\	-pa-	-mit-	.	0e\	-ve-	-mit-	.
.	.	.	.	.	.	.	.	2G#X/	-ue-	.	.	.	.	.	.
=31	=31	=31	=31	=31	=31	=31	=31	=31	=31	=31	=31	=31	=31	=31	=31
0.AA/	-ſcens	-te	.	0.A\	-ſce(n)s	-te	.	0.A\	-ſcens	-te	.	0.e\	-ſcens	-te	.
=32	=32	=32	=32	=32	=32	=32	=32	=32	=32	=32	=32	=32	=32	=32	=32
1A\	ſan-	Vt	.	1A\	ſan-	Ut	.	1c\	ſan-	Ut	.	1e\	ſan-	ut	.
1F\	-gui-	ti-	.	1A\	-gui-	ti-	.	1d\	-gui-	ti-	.	1f\	-gui-	ti-	.
2G\	-ne	-bi	.	2G/	-ne	.	.	2B\	-ne	-bi	.	2d\	-ne	.	.
!	!	!	!	!	!	!	!	!LO:TX:t=P:problem:♯above	!	!	!	!	!	!	!
2G\	ef-	pu-	.	2G/	ef-	-bi	.	2Bn\	ef-	pu-	.	2d\	ef-	-bi	.
=33	=33	=33	=33	=33	=33	=33	=33	=33	=33	=33	=33	=33	=33	=33	=33
0C/	-fu-	-ro	.	0G/	-fu-	pu-	.	0c\	-fu-	-ro	.	0e\	-fu-	pu-	.
1C/	-so	re-	.	1G/	-so	-ro	.	1c\	-so	re-	.	1e\	-ſo	-ro	.
=34	=34	=34	=34	=34	=34	=34	=34	=34	=34	=34	=34	=34	=34	=34	=34
1.C/	me-	-ſo-	.	1.c\	me-	re-	.	(2c\	me-	-ſo-	.	1.g\	me-	re-	.
.	.	.	.	.	.	.	.	2G\)	.	.	.	.	.	.	.
.	.	.	.	.	.	.	.	(2A\	-ru-	-ne-	.	.	.	.	.
2D/	-ru-	-ne-	.	2B\	-ru-	-ſo-	.	2B\)	.	.	.	2f\	.	.	.
1E\	-it	-mus	.	1G/	-it	-ne-	.	1c\	-it	.	.	2e\	.	-so-	.
.	.	.	.	.	.	.	.	.	.	.	.	2d\	.	.	.
=35	=35	=35	=35	=35	=35	=35	=35	=35-	=35	=35	=35	=35	=35	=35	=35
1F\	ſe-	al-	.	1A\	ſe-	-mus	.	1c\	ſe-	-mus	.	2f\	-ru-	-ne-	.
.	.	.	.	.	.	.	.	.	.	.	.	2e\	.	.	.
0G\	-re-	.	.	0G/	-re-	al-	.	1.c\	-re-	al-	.	0d\	-it	-mus	.
.	.	.	.	.	.	.	.	2B\	-num	.	.	.	.	.	.
=36	=36	=36	=36	=36	=36	=36	=36	=36	=36	=36	=36	=36	=36	=36	=36
1C/	-num	-mum	.	1G/	-nu(m)	-mum	.	1c\	ſcan-	-mum	.	1e\	ſe-	al-	.
1c\	ſcan-	pe-	.	2G/	ſcan-	.	.	1e\	.	pe-	.	2e\	-re-	-mu(m)	.
.	.	.	.	2F/	.	.	.	.	.	.	.	2d\	.	.	.
2B-X\	.	.	.	2G/	.	.	.	2d\	.	.	.	2e\	.	.	.
2A\	.	.	.	2A/	.	.	.	2c\	.	.	.	2f\	.	.	.
=37	=37	=37	=37	=37	=37	=37	=37	=37	=37	=37	=37	=37	=37	=37	=37
0G\	.	.	.	[<1.B\	.	pe-	.	1.B\	.	.	.	1g\	-nu(m)	pec-	.
.	.	.	.	.	.	.	.	.	.	.	.	2d\	ſcan-	-to-	.
.	.	.	.	2B/]	.	.	.	2A\	-de-	-cto-	.	2c\	.	.	.
2F\	.	.	.	2A/	.	.	.	2B\	.	.	.	2d\	.	.	.
2E\	.	.	.	2G/	.	.	.	2c\	-re	.	.	2e\	.	.	.
=38	=38	=38	=38	=38	=38	=38	=38	=38	=38	=38	=38	=38	=38	=38	=38
*	*	*	*	*	*	*	*	*	*ij	*	*	*	*	*	*
1.D\	.	.	.	1F/	.	.	.	1.d\	ſcan-	-re	.	1.f\	-de-	-re	.
.	.	.	.	1d\	.	.	.	.	.	.	.	.	.	.	.
*	*	*	*	*	*	*	*	*	*	*ij	*	*	*	*	*
2E\	.	.	.	.	.	.	.	2d\	-de-	pec-	.	2g\	.	.	.
2F\	.	.	.	2c\	.	.	.	1d\	-re	-to-	.	1a\	-re	.	.
2G\	.	.	.	2B\	.	.	.	.	.	.	.	.	.	.	.
=39-	=39	=39	=39	=39	=39	=39	=39	=39	=39	=39	=39	=39	=39	=39	=39
*	*	*	*	*	*	*	*	*	*	*	*	*	*ij	*ij	*
1.A\	.	.	.	1.A\	.	.	.	1.c\	ſcan-	-re	.	1.e\	ſcan-	pec-	.
2F\	-de-	-cto-	.	2A\	-de-	-cto-	.	2d\	-de-	.	.	2f\	-de-	-to-	.
!	!	!	!	!LO:TX:t=P:problem:♭above	!	!	!	!	!	!	!	!	!	!	!
1B-X\	-re	-re	.	1B-X\	-re	-re	.	2B\	-re	.	.	1d\	-re	-re	.
*	*	*	*	*	*	*	*	*	*Xij	*Xij	*	*	*Xij	*Xij	*
.	.	.	.	.	.	.	.	2c\	.	.	.	.	.	.	.
=40	=40	=40	=40	=40	=40	=40	=40	=40	=40	=40	=40	=40	=40	=40	=40
!	!	!	!	!LO:TX:t=P:problem:♭above	!	!	!	!	!	!	!	!	!	!	!
1G\	cae-	car-	.	1B-X\	cae-	car-	.	0d\	cae-	car-	.	2g\	Cae-	Car-	.
.	.	.	.	.	.	.	.	.	.	.	.	2f\	.	.	.
0A\	.	.	.	0A\	.	.	.	.	.	.	.	2e\	.	.	.
.	.	.	.	.	.	.	.	.	.	.	.	2d\	.	.	.
!	!	!	!	!	!	!	!	!LO:TX:t=P:problem:♯below	!	!	!	!	!	!	!
.	.	.	.	.	.	.	.	1c#X\	.	.	.	1e\	.	.	.
=41	=41	=41	=41	=41	=41	=41	=41	=41	=41	=41	=41	=41	=41	=41	=41
0.D\;;	-lum	-men	.	0.A\;;	-lum	-men.	.	0.D/;	-lum	-men	.	0.f#X\;;	-lum	-men.	.
==	==	==	==	==	==	==	==	==	==	==	==	==	==	==	==
*-	*-	*-	*-	*-	*-	*-	*-	*-	*-	*-	*-	*-	*-	*-	*-
!!!system-decoration: [(s1,s2,s3,s4)]
!!!RDF**kern: > = above
!!!RDF**kern: < = below
!!!ENC: Mateusz Solarz
!!!END: 2021-03-25
!!!EED: Andrzej Borzym
!!!EST: 2021-04-06
